Newaita-dark/mimetypes/24/payment-card-mastercard.svg

<svg height="24pt" viewBox="0 0 24 24" width="24pt" xmlns="http://www.w3.org/2000/svg" xmlns:xlink="http://www.w3.org/1999/xlink"><linearGradient id="a" gradientUnits="userSpaceOnUse" x1="12.403533" x2="12.403533" y1="19.53702825" y2="20.52931115627"><stop offset="0" stop-opacity=".27451"/><stop offset="1" stop-opacity="0"/></linearGradient><linearGradient id="b"><stop offset="0" stop-opacity=".313725"/><stop offset=".222222" stop-opacity=".27451"/><stop offset="1" stop-opacity="0"/></linearGradient><radialGradient id="c" cx="450.90894" cy="189.57936" gradientTransform="matrix(.00000013 -.0585994 -.105479 -.00000008 40.09027 46.208077)" gradientUnits="userSpaceOnUse" r="21.166656" xlink:href="#b"/><radialGradient id="d" cx="450.90894" cy="189.57936" gradientTransform="matrix(-.00000013 .0585994 .105479 .00000008 -16.275496 -7.134032)" gradientUnits="userSpaceOnUse" r="21.166656" xlink:href="#b"/><radialGradient id="e" cx="450.90894" cy="189.57936" gradientTransform="matrix(-.00000013 -.0585994 .105479 -.00000008 -16.275496 46.208077)" gradientUnits="userSpaceOnUse" r="21.166656" xlink:href="#b"/><radialGradient id="f" cx="450.90894" cy="189.57936" gradientTransform="matrix(.00000013 .0585994 -.105479 .00000008 40.090269 -7.134033)" gradientUnits="userSpaceOnUse" r="21.166656" xlink:href="#b"/><linearGradient id="g" gradientUnits="userSpaceOnUse" x1="11.907393" x2="11.907393" y1="23.01001606253" y2="1.17979540627"><stop offset="0" stop-color="#424242"/><stop offset="1" stop-color="#616161"/></linearGradient><linearGradient id="h" gradientUnits="userSpaceOnUse" x1="8.93054475" x2="8.68247390624" y1="19.28895528123" y2="4.652784875"><stop offset="0" stop-color="#f44336"/><stop offset="1" stop-color="#ef5350"/></linearGradient><linearGradient id="i" gradientUnits="userSpaceOnUse" x1="14.1400291875" x2="14.1400291875" y1="19.537027125" y2="4.652785875"><stop offset="0" stop-color="#ffa726"/><stop offset="1" stop-color="#ffb74d"/></linearGradient><linearGradient id="j" gradientUnits="userSpaceOnUse" x1="14.1400291875" x2="14.1400291875" y1="19.537026125" y2="4.652784875"><stop offset="0" stop-color="#ff7043"/><stop offset="1" stop-color="#ff8a65"/></linearGradient><path d="m3.472656 19.535156h16.867188v.996094h-16.867188zm0 0" fill="url(#a)"/><path d="m20.339844 19.535156h1.988281v-.992187h-1.988281zm0 0" fill="url(#c)"/><path d="m3.472656 19.535156h-1.984375v.996094h1.984375zm0 0" fill="url(#d)"/><path d="m3.472656 19.535156h-1.984375v-.992187h1.984375zm0 0" fill="url(#e)"/><path d="m20.339844 19.535156h1.988281v.996094h-1.988281zm0 0" fill="url(#f)"/><path d="m2.976562 4.652344h17.863282c.546875 0 .992187.445312.992187.992187v12.898438c0 .550781-.445312.992187-.992187.992187h-17.863282c-.546874 0-.992187-.441406-.992187-.992187v-12.898438c0-.546875.445313-.992187.992187-.992187zm0 0" fill="url(#g)"/><path d="m2.976562 4.652344c-.550781 0-.992187.441406-.992187.992187v.25c0-.550781.441406-.992187.992187-.992187h17.863282c.546875 0 .992187.441406.992187.992187v-.25c0-.550781-.445312-.992187-.992187-.992187zm0 0" fill="#fff" fill-opacity=".392157"/><path d="m1.984375 18.304688v.238281c0 .550781.441406.992187.992187.992187h17.863282c.546875 0 .992187-.441406.992187-.992187v-.238281c0 .550781-.445312.992187-.992187.992187h-17.863282c-.550781 0-.992187-.441406-.992187-.992187zm0 0" fill-opacity=".235294"/><path d="m63.493937-115.759477h381.046945c11.665552 0 21.164645 9.499093 21.164645 21.164646v275.140392c0 11.748878-9.499093 21.164645-21.164645 21.164645h-381.046945c-11.665553 0-21.164646-9.415767-21.164646-21.164645v-275.140392c0-11.665553 9.499093-21.164646 21.164646-21.164646zm0 0" fill="none" stroke="#212121" stroke-linecap="round" stroke-linejoin="round" stroke-width="3" transform="matrix(.0468795 0 0 .0468795 0 10.079087)"/><path d="m9.425781 8.125c2.191407 0 3.96875 1.777344 3.96875 3.96875s-1.777343 3.96875-3.96875 3.96875c-2.191406 0-3.96875-1.777344-3.96875-3.96875s1.777344-3.96875 3.96875-3.96875zm0 0" fill="url(#h)"/><path d="m14.386719 8.125c2.195312 0 3.96875 1.777344 3.96875 3.96875s-1.773438 3.96875-3.96875 3.96875c-2.191407 0-3.96875-1.777344-3.96875-3.96875s1.777343-3.96875 3.96875-3.96875zm0 0" fill="url(#i)"/><path d="m11.90625 8.992188c-.90625.726562-1.488281 1.84375-1.488281 3.101562s.582031 2.378906 1.488281 3.105469c.910156-.726563 1.488281-1.847657 1.488281-3.105469s-.578125-2.375-1.488281-3.101562zm0 0" fill="url(#j)"/><g fill="#212121"><path d="m9.425781 8.054688c-2.234375 0-4.039062 1.804687-4.039062 4.039062 0 2.238281 1.804687 4.039062 4.039062 4.039062.964844 0 1.84375-.332031 2.539063-.890624-.039063-.03125-.078125-.058594-.113282-.089844-.664062.527344-1.507812.839844-2.425781.839844-2.160156 0-3.898437-1.734376-3.898437-3.898438 0-2.160156 1.738281-3.898438 3.898437-3.898438.917969 0 1.761719.316407 2.425781.84375.035157-.03125.074219-.0625.113282-.089843-.695313-.558594-1.574219-.894531-2.539063-.894531zm0 0"/><path d="m14.386719 8.054688c-.960938 0-1.84375.335937-2.535157.894531.039063.027343.074219.058593.109376.089843.667968-.527343 1.507812-.84375 2.425781-.84375 2.164062 0 3.898437 1.738282 3.898437 3.898438 0 2.164062-1.734375 3.898438-3.898437 3.898438-.917969 0-1.757813-.3125-2.425781-.839844-.035157.03125-.070313.058594-.109376.089844.691407.558593 1.574219.890624 2.535157.890624 2.238281 0 4.039062-1.800781 4.039062-4.039062 0-2.234375-1.800781-4.039062-4.039062-4.039062zm0 0"/></g></svg>

<?xml version="1.0" encoding="UTF-8"?>
<svg xmlns="http://www.w3.org/2000/svg" xmlns:xlink="http://www.w3.org/1999/xlink" width="24pt" height="24pt" viewBox="0 0 24 24" version="1.1">
<defs>
<linearGradient id="linear0" gradientUnits="userSpaceOnUse" x1="254" y1="233.5" x2="254" y2="254.66667" gradientTransform="matrix(0.0468795,0,0,0.0468795,0.49614,8.590665)">
<stop offset="0" style="stop-color:rgb(0%,0%,0%);stop-opacity:0.27451;"/>
<stop offset="1" style="stop-color:rgb(0%,0%,0%);stop-opacity:0;"/>
</linearGradient>
<radialGradient id="radial0" gradientUnits="userSpaceOnUse" cx="450.90894" cy="189.57936" fx="450.90894" fy="189.57936" r="21.166656" gradientTransform="matrix(0.000000130628,-0.0585994,-0.105479,-0.0000000761539,40.09027,46.208077)">
<stop offset="0" style="stop-color:rgb(0%,0%,0%);stop-opacity:0.313725;"/>
<stop offset="0.222222" style="stop-color:rgb(0%,0%,0%);stop-opacity:0.27451;"/>
<stop offset="1" style="stop-color:rgb(0%,0%,0%);stop-opacity:0;"/>
</radialGradient>
<radialGradient id="radial1" gradientUnits="userSpaceOnUse" cx="450.90894" cy="189.57936" fx="450.90894" fy="189.57936" r="21.166656" gradientTransform="matrix(-0.000000130628,0.0585994,0.105479,0.0000000761539,-16.275496,-7.134032)">
<stop offset="0" style="stop-color:rgb(0%,0%,0%);stop-opacity:0.313725;"/>
<stop offset="0.222222" style="stop-color:rgb(0%,0%,0%);stop-opacity:0.27451;"/>
<stop offset="1" style="stop-color:rgb(0%,0%,0%);stop-opacity:0;"/>
</radialGradient>
<radialGradient id="radial2" gradientUnits="userSpaceOnUse" cx="450.90894" cy="189.57936" fx="450.90894" fy="189.57936" r="21.166656" gradientTransform="matrix(-0.000000130628,-0.0585994,0.105479,-0.0000000761539,-16.275496,46.208077)">
<stop offset="0" style="stop-color:rgb(0%,0%,0%);stop-opacity:0.313725;"/>
<stop offset="0.222222" style="stop-color:rgb(0%,0%,0%);stop-opacity:0.27451;"/>
<stop offset="1" style="stop-color:rgb(0%,0%,0%);stop-opacity:0;"/>
</radialGradient>
<radialGradient id="radial3" gradientUnits="userSpaceOnUse" cx="450.90894" cy="189.57936" fx="450.90894" fy="189.57936" r="21.166656" gradientTransform="matrix(0.000000130628,0.0585994,-0.105479,0.0000000761539,40.090269,-7.134033)">
<stop offset="0" style="stop-color:rgb(0%,0%,0%);stop-opacity:0.313725;"/>
<stop offset="0.222222" style="stop-color:rgb(0%,0%,0%);stop-opacity:0.27451;"/>
<stop offset="1" style="stop-color:rgb(0%,0%,0%);stop-opacity:0;"/>
</radialGradient>
<linearGradient id="linear1" gradientUnits="userSpaceOnUse" x1="254" y1="275.83334" x2="254" y2="-189.83333" gradientTransform="matrix(0.0468795,0,0,0.0468795,0,10.079087)">
<stop offset="0" style="stop-color:rgb(25.882353%,25.882353%,25.882353%);stop-opacity:1;"/>
<stop offset="1" style="stop-color:rgb(38.039216%,38.039216%,38.039216%);stop-opacity:1;"/>
</linearGradient>
<linearGradient id="linear2" gradientUnits="userSpaceOnUse" x1="190.5" y1="196.45833" x2="185.20833" y2="-115.75" gradientTransform="matrix(0.0468795,0,0,0.0468795,0,10.079087)">
<stop offset="0" style="stop-color:rgb(95.686275%,26.27451%,21.176471%);stop-opacity:1;"/>
<stop offset="1" style="stop-color:rgb(93.72549%,32.54902%,31.372549%);stop-opacity:1;"/>
</linearGradient>
<linearGradient id="linear3" gradientUnits="userSpaceOnUse" x1="301.625" y1="201.75" x2="301.625" y2="-115.75" gradientTransform="matrix(0.0468795,0,0,0.0468795,0,10.079088)">
<stop offset="0" style="stop-color:rgb(100%,65.490196%,14.901961%);stop-opacity:1;"/>
<stop offset="1" style="stop-color:rgb(100%,71.764706%,30.196078%);stop-opacity:1;"/>
</linearGradient>
<linearGradient id="linear4" gradientUnits="userSpaceOnUse" x1="301.625" y1="201.75" x2="301.625" y2="-115.75" gradientTransform="matrix(0.0468795,0,0,0.0468795,0,10.079087)">
<stop offset="0" style="stop-color:rgb(100%,43.921569%,26.27451%);stop-opacity:1;"/>
<stop offset="1" style="stop-color:rgb(100%,54.117647%,39.607843%);stop-opacity:1;"/>
</linearGradient>
</defs>
<g id="surface1">
<path style=" stroke:none;fill-rule:nonzero;fill:url(#linear0);" d="M 3.472656 19.535156 L 20.339844 19.535156 L 20.339844 20.53125 L 3.472656 20.53125 Z M 3.472656 19.535156 "/>
<path style=" stroke:none;fill-rule:nonzero;fill:url(#radial0);" d="M 20.339844 19.535156 L 22.328125 19.535156 L 22.328125 18.542969 L 20.339844 18.542969 Z M 20.339844 19.535156 "/>
<path style=" stroke:none;fill-rule:nonzero;fill:url(#radial1);" d="M 3.472656 19.535156 L 1.488281 19.535156 L 1.488281 20.53125 L 3.472656 20.53125 Z M 3.472656 19.535156 "/>
<path style=" stroke:none;fill-rule:nonzero;fill:url(#radial2);" d="M 3.472656 19.535156 L 1.488281 19.535156 L 1.488281 18.542969 L 3.472656 18.542969 Z M 3.472656 19.535156 "/>
<path style=" stroke:none;fill-rule:nonzero;fill:url(#radial3);" d="M 20.339844 19.535156 L 22.328125 19.535156 L 22.328125 20.53125 L 20.339844 20.53125 Z M 20.339844 19.535156 "/>
<path style=" stroke:none;fill-rule:nonzero;fill:url(#linear1);" d="M 2.976562 4.652344 L 20.839844 4.652344 C 21.386719 4.652344 21.832031 5.097656 21.832031 5.644531 L 21.832031 18.542969 C 21.832031 19.09375 21.386719 19.535156 20.839844 19.535156 L 2.976562 19.535156 C 2.429688 19.535156 1.984375 19.09375 1.984375 18.542969 L 1.984375 5.644531 C 1.984375 5.097656 2.429688 4.652344 2.976562 4.652344 Z M 2.976562 4.652344 "/>
<path style=" stroke:none;fill-rule:nonzero;fill:rgb(100%,100%,100%);fill-opacity:0.392157;" d="M 2.976562 4.652344 C 2.425781 4.652344 1.984375 5.09375 1.984375 5.644531 L 1.984375 5.894531 C 1.984375 5.34375 2.425781 4.902344 2.976562 4.902344 L 20.839844 4.902344 C 21.386719 4.902344 21.832031 5.34375 21.832031 5.894531 L 21.832031 5.644531 C 21.832031 5.09375 21.386719 4.652344 20.839844 4.652344 Z M 2.976562 4.652344 "/>
<path style=" stroke:none;fill-rule:nonzero;fill:rgb(0%,0%,0%);fill-opacity:0.235294;" d="M 1.984375 18.304688 L 1.984375 18.542969 C 1.984375 19.09375 2.425781 19.535156 2.976562 19.535156 L 20.839844 19.535156 C 21.386719 19.535156 21.832031 19.09375 21.832031 18.542969 L 21.832031 18.304688 C 21.832031 18.855469 21.386719 19.296875 20.839844 19.296875 L 2.976562 19.296875 C 2.425781 19.296875 1.984375 18.855469 1.984375 18.304688 Z M 1.984375 18.304688 "/>
<path style="fill:none;stroke-width:3;stroke-linecap:round;stroke-linejoin:round;stroke:rgb(12.941176%,12.941176%,12.941176%);stroke-opacity:1;stroke-miterlimit:4;" d="M 63.493937 -115.759477 L 444.540882 -115.759477 C 456.206434 -115.759477 465.705527 -106.260384 465.705527 -94.594831 L 465.705527 180.545561 C 465.705527 192.294439 456.206434 201.710206 444.540882 201.710206 L 63.493937 201.710206 C 51.828384 201.710206 42.329291 192.294439 42.329291 180.545561 L 42.329291 -94.594831 C 42.329291 -106.260384 51.828384 -115.759477 63.493937 -115.759477 Z M 63.493937 -115.759477 " transform="matrix(0.0468795,0,0,0.0468795,0,10.079087)"/>
<path style=" stroke:none;fill-rule:nonzero;fill:url(#linear2);" d="M 9.425781 8.125 C 11.617188 8.125 13.394531 9.902344 13.394531 12.09375 C 13.394531 14.285156 11.617188 16.0625 9.425781 16.0625 C 7.234375 16.0625 5.457031 14.285156 5.457031 12.09375 C 5.457031 9.902344 7.234375 8.125 9.425781 8.125 Z M 9.425781 8.125 "/>
<path style=" stroke:none;fill-rule:nonzero;fill:url(#linear3);" d="M 14.386719 8.125 C 16.582031 8.125 18.355469 9.902344 18.355469 12.09375 C 18.355469 14.285156 16.582031 16.0625 14.386719 16.0625 C 12.195312 16.0625 10.417969 14.285156 10.417969 12.09375 C 10.417969 9.902344 12.195312 8.125 14.386719 8.125 Z M 14.386719 8.125 "/>
<path style=" stroke:none;fill-rule:nonzero;fill:url(#linear4);" d="M 11.90625 8.992188 C 11 9.71875 10.417969 10.835938 10.417969 12.09375 C 10.417969 13.351562 11 14.472656 11.90625 15.199219 C 12.816406 14.472656 13.394531 13.351562 13.394531 12.09375 C 13.394531 10.835938 12.816406 9.71875 11.90625 8.992188 Z M 11.90625 8.992188 "/>
<path style=" stroke:none;fill-rule:nonzero;fill:rgb(12.941176%,12.941176%,12.941176%);fill-opacity:1;" d="M 9.425781 8.054688 C 7.191406 8.054688 5.386719 9.859375 5.386719 12.09375 C 5.386719 14.332031 7.191406 16.132812 9.425781 16.132812 C 10.390625 16.132812 11.269531 15.800781 11.964844 15.242188 C 11.925781 15.210938 11.886719 15.183594 11.851562 15.152344 C 11.1875 15.679688 10.34375 15.992188 9.425781 15.992188 C 7.265625 15.992188 5.527344 14.257812 5.527344 12.09375 C 5.527344 9.933594 7.265625 8.195312 9.425781 8.195312 C 10.34375 8.195312 11.1875 8.511719 11.851562 9.039062 C 11.886719 9.007812 11.925781 8.976562 11.964844 8.949219 C 11.269531 8.390625 10.390625 8.054688 9.425781 8.054688 Z M 9.425781 8.054688 "/>
<path style=" stroke:none;fill-rule:nonzero;fill:rgb(12.941176%,12.941176%,12.941176%);fill-opacity:1;" d="M 14.386719 8.054688 C 13.425781 8.054688 12.542969 8.390625 11.851562 8.949219 C 11.890625 8.976562 11.925781 9.007812 11.960938 9.039062 C 12.628906 8.511719 13.46875 8.195312 14.386719 8.195312 C 16.550781 8.195312 18.285156 9.933594 18.285156 12.09375 C 18.285156 14.257812 16.550781 15.992188 14.386719 15.992188 C 13.46875 15.992188 12.628906 15.679688 11.960938 15.152344 C 11.925781 15.183594 11.890625 15.210938 11.851562 15.242188 C 12.542969 15.800781 13.425781 16.132812 14.386719 16.132812 C 16.625 16.132812 18.425781 14.332031 18.425781 12.09375 C 18.425781 9.859375 16.625 8.054688 14.386719 8.054688 Z M 14.386719 8.054688 "/>
</g>
</svg>
